X: 20330
T: John Brosnan's
R: polka
M: 2/4
K: Gmajor
|:D|GA Bd|ef g2|ed Bd|e/f/e/d/ B/c/B/A/|
G>A Bd|ef g2|ed BA|1 G2 G:|2 G2 G2||
gf ed|ef g2|ed Bd|e/f/e/d/ Bd|
gf ed|ef gf/g/|ed B/c/B/A/|1 G2 G2:|2 G2 G||

